image/section-paralax-swiper-slide-content-logo.svg

<svg fill="none" height="22" viewBox="0 0 176 22" width="176" xmlns="http://www.w3.org/2000/svg"><g fill="#1e1e1e"><path d="m3.22747 15.089v5.0936c0 .2953-.34767.777-.65554.8566-.28275.0733-1.688092.067-1.95827-.0189-.389559-.1256-.5445457-.5424-.6031889-.9089l-.0104711-14.78023c.0565489-.6744.366521-1.12889 1.0849-1.14983 4.43385.15499 8.9996-.19897 13.4167 0 1.8787.08378 5.3889.69325 6.2895 2.58659.3666.77074.3184 3.28607.2535 4.22017-.2388 3.4097-4.1093 3.9689-6.811 4.103-3.3846.1633-7.19012.1843-10.58515.0712-.14661-.0042-.27856-.067-.42516-.0691h.00209zm0-2.6264h11.87103c.9362-.0754 2.5322-.3246 2.7626-1.4409.1089-.5278.0858-2.34787.0314-2.93011-.1005-1.08071-2.0588-1.14773-2.8631-1.27758h-11.80193v5.65069z"/><path d="m123.285 11.4097h15.023c.111 0 .528.1989.629.2911.456.4251.347 1.753-.166 2.1405-.061.046-.35.1968-.396.1968h-15.023v3.0558c0 .0837.222.4084.296.4942.613.7205 2.249.8776 3.152.9216 3.801.1843 7.751-.1487 11.569.0021 1.158.1382 1.152 2.4923-.056 2.5593-4.036-.1885-8.286.2409-12.299-.0042-2.178-.1319-5.567-1.043-5.818-3.6463-.287-2.9657.214-6.3837 0-9.3955.459-2.9175 4.107-3.73432 6.604-3.84742 1.047-.04607 2.597-.08796 3.621 0 1.024.08797 1.135.89641 1.009 1.80329-.063.46914-.427.75817-.888.821-1.709.23248-5.606-.45448-6.897.8608-.121.12357-.362.53407-.362.68906v3.05577h.002z"/><path d="m31.8935 11.4097h14.7928v-6.53876c0-.22619.4272-.53616.643-.60528.5801-.1864 2.1132-.24923 2.375.48171.1571 5.18574.0461 10.41543.0566 15.61583-.0503.2974-.2744.5969-.5739.6744-.2618.0671-1.5834.0713-1.8619.0168-.2409-.0482-.6409-.4482-.6409-.6744v-6.3419h-14.7928v6.3419c0 .2262-.4.6262-.6409.6744-.2806.0565-1.6587.0503-1.9143-.0293-.2806-.088-.5382-.444-.5864-.7289l-.0188-15.0336c.002-.39375.178-.80216.5487-.96133.488-.20944 1.9436-.21154 2.3499.17383.0566.05236.2597.35814.2597.39794v6.53876z"/><path d="m153.333 12.4633c-.061 0-.117-.0272-.163-.0649-2.344-2.0022-4.998-3.97726-7.232-6.04862-.503-.46496-1.031-.98646-.599-1.71113.209-.34976.672-.42935 1.053-.45867.499-.0398 1.278-.05655 1.701.20944l7.504 6.23088.327-.199 7.179-6.03188c.488-.28903 1.661-.28484 2.193-.10891.832.27227.817 1.16658.298 1.74464l-7.729 6.46965 7.892 6.7c.48.4293.672 1.2503.096 1.6776-.485.3602-2.088.3539-2.62-.0105l-7.579-6.4256c-2.671 2.1069-5.224 4.3731-7.879 6.5031-.522.2702-1.521.2262-2.091.1131-.938-.1843-.904-1.2399-.345-1.8263 2.486-2.2033 5.234-4.2203 7.692-6.4382.051-.0461.321-.2932.298-.3247z"/><path d="m95.2599 4.19809c.7436-.10681 2.0966-.15289 2.2474.80844v11.62817c.1528 1.7509 2.4022 1.7341 3.7177 1.8053 3.83.2074 7.711-.0335 11.557.0796 1.101.1843 1.072 2.4945-.113 2.5489-4.131-.1822-8.453.2325-12.561-.0042-2.3976-.1382-5.5601-1.2441-5.757-4.0359-.2702-3.8704.2094-8.05716.0021-11.96113.0586-.51941.4-.79797.9048-.86918z"/><path d="m69.4213 4.19812c.6995-.10262 2.086-.16126 2.2347.75399l.0126 11.61769c.155 1.8137 2.3499 1.797 3.7155 1.8724 3.8306.2073 7.7116-.0335 11.5569.0795.8126.1362.8566 1.0577.7665 1.7196-.0586.4335-.4251.8377-.8796.8293-4.1302-.1801-8.453.2325-12.5602-.0042-2.4483-.1403-5.548-1.2734-5.7575-4.105-.2806-3.8181.2158-7.97756.0021-11.82917.065-.54454.3644-.85661.9048-.93411z"/><path d="m58.5031 8.53159c.222-.05027 1.3216-.04189 1.5143.0356.289.11729.6304.65974.6681.9739l.0063 10.70661c-.0377.3749-.2995.7561-.6954.8168-.2827.044-1.4116.0419-1.6734-.0272-.3016-.0775-.5424-.4294-.5843-.731l-.0042-10.63745c-.0042-.38537.3958-1.05139.7686-1.13726z"/><path d="m58.8364 4.19845c1.2189-.14451 2.6996.61995 2.2158 2.01901-.555 1.6085-4.061 1.47655-3.7825-.8231.0796-.66183.9614-1.1247 1.5646-1.19591z"/><path d="m174.339.577334c2.362 1.325756 2.142 4.739636-.256 5.922966-3.596 1.77396-7.688-2.04204-4.961-5.24647 1.25-1.468181 3.596-1.583372 5.215-.676496zm-.859.096341c-5.349-1.884965-6.524 6.381645-.821 5.776365 3.272-.34767 3.894-4.69146.821-5.776365z"/><path d="m172.091 1.4132c.293.01885.616.03351.886.24923.482.38747.478 1.65667-.243 1.80956.191.18641 1.068 2.0588 1.068 2.0588l-.651-.00837-.974-1.82004h-.813v1.8326l-.609-.00419v-4.1155c.017.01257.821-.03351 1.34 0zm.264.51103c-.304-.03979-.653-.01257-.993 0v1.27968c.233-.01257 1.148.07121 1.293-.24714.117-.2618.146-.9739-.3-1.03254z"/></g></svg>

<svg width="176" height="22" viewBox="0 0 176 22" fill="none" xmlns="http://www.w3.org/2000/svg">
<path d="M3.22747 15.089V20.1826C3.22747 20.4779 2.8798 20.9596 2.57193 21.0392C2.28918 21.1125 0.883838 21.1062 0.61366 21.0203C0.224101 20.8947 0.0691143 20.4779 0.0104711 20.1114L0 5.33117C0.0565489 4.65677 0.366521 4.20228 1.0849 4.18134C5.51875 4.33633 10.0845 3.98237 14.5016 4.18134C16.3803 4.26512 19.8905 4.87459 20.7911 6.76793C21.1577 7.53867 21.1095 10.054 21.0446 10.9881C20.8058 14.3978 16.9353 14.957 14.2336 15.0911C10.849 15.2544 7.04348 15.2754 3.64845 15.1623C3.50184 15.1581 3.36989 15.0953 3.22329 15.0932H3.22538L3.22747 15.089ZM3.22747 12.4626H15.0985C16.0347 12.3872 17.6307 12.138 17.8611 11.0217C17.97 10.4939 17.9469 8.67383 17.8925 8.09159C17.792 7.01088 15.8337 6.94386 15.0294 6.81401H3.22747V12.4647V12.4626Z" fill="#1E1E1E"/>
<path d="M123.285 11.4097H138.308C138.419 11.4097 138.836 11.6086 138.937 11.7008C139.393 12.1259 139.284 13.4538 138.771 13.8413C138.71 13.8873 138.421 14.0381 138.375 14.0381H123.352V17.0939C123.352 17.1776 123.574 17.5023 123.648 17.5881C124.261 18.3086 125.897 18.4657 126.8 18.5097C130.601 18.694 134.551 18.361 138.369 18.5118C139.527 18.65 139.521 21.0041 138.313 21.0711C134.277 20.8826 130.027 21.312 126.014 21.0669C123.836 20.935 120.447 20.0239 120.196 17.4206C119.909 14.4549 120.41 11.0369 120.196 8.0251C120.655 5.1076 124.303 4.29078 126.8 4.17768C127.847 4.13161 129.397 4.08972 130.421 4.17768C131.445 4.26565 131.556 5.07409 131.43 5.98097C131.367 6.45011 131.003 6.73914 130.542 6.80197C128.833 7.03445 124.936 6.34749 123.645 7.66277C123.524 7.78634 123.283 8.19684 123.283 8.35183V11.4076H123.285V11.4097Z" fill="#1E1E1E"/>
<path d="M31.8935 11.4097H46.6863V4.87094C46.6863 4.64475 47.1135 4.33478 47.3293 4.26566C47.9094 4.07926 49.4425 4.01643 49.7043 4.74737C49.8614 9.93311 49.7504 15.1628 49.7609 20.3632C49.7106 20.6606 49.4865 20.9601 49.187 21.0376C48.9252 21.1047 47.6036 21.1089 47.3251 21.0544C47.0842 21.0062 46.6842 20.6062 46.6842 20.38V14.0381H31.8914V20.38C31.8914 20.6062 31.4914 21.0062 31.2505 21.0544C30.9699 21.1109 29.5918 21.1047 29.3362 21.0251C29.0556 20.9371 28.798 20.5811 28.7498 20.2962L28.731 5.2626C28.733 4.86885 28.909 4.46044 29.2797 4.30127C29.7677 4.09183 31.2233 4.08973 31.6296 4.4751C31.6862 4.52746 31.8893 4.83324 31.8893 4.87304V11.4118L31.8935 11.4097Z" fill="#1E1E1E"/>
<path d="M153.333 12.4633C153.272 12.4633 153.216 12.4361 153.17 12.3984C150.826 10.3962 148.172 8.42114 145.938 6.34978C145.435 5.88482 144.907 5.36332 145.339 4.63865C145.548 4.28889 146.011 4.2093 146.392 4.17998C146.891 4.14018 147.67 4.12343 148.093 4.38942L155.597 10.6203L155.924 10.4213L163.103 4.38942C163.591 4.10039 164.764 4.10458 165.296 4.28051C166.128 4.55278 166.113 5.44709 165.594 6.02515L157.865 12.4948L165.757 19.1948C166.237 19.6241 166.429 20.4451 165.853 20.8724C165.368 21.2326 163.765 21.2263 163.233 20.8619L155.654 14.4363C152.983 16.5432 150.43 18.8094 147.775 20.9394C147.253 21.2096 146.254 21.1656 145.684 21.0525C144.746 20.8682 144.78 19.8126 145.339 19.2262C147.825 17.0229 150.573 15.0059 153.031 12.788C153.082 12.7419 153.352 12.4948 153.329 12.4633H153.333Z" fill="#1E1E1E"/>
<path d="M95.2599 4.19809C96.0035 4.09128 97.3565 4.0452 97.5073 5.00653V16.6347C97.6601 18.3856 99.9095 18.3688 101.225 18.44C105.055 18.6474 108.936 18.4065 112.782 18.5196C113.883 18.7039 113.854 21.0141 112.669 21.0685C108.538 20.8863 104.216 21.301 100.108 21.0643C97.7104 20.9261 94.5479 19.8202 94.351 17.0284C94.0808 13.158 94.5604 8.97124 94.3531 5.06727C94.4117 4.54786 94.7531 4.2693 95.2579 4.19809H95.2599Z" fill="#1E1E1E"/>
<path d="M69.4213 4.19812C70.1208 4.0955 71.5073 4.03686 71.656 4.95211L71.6686 16.5698C71.8236 18.3835 74.0185 18.3668 75.3841 18.4422C79.2147 18.6495 83.0957 18.4087 86.941 18.5217C87.7536 18.6579 87.7976 19.5794 87.7075 20.2413C87.6489 20.6748 87.2824 21.079 86.8279 21.0706C82.6977 20.8905 78.3749 21.3031 74.2677 21.0664C71.8194 20.9261 68.7197 19.793 68.5102 16.9614C68.2296 13.1433 68.726 8.98384 68.5123 5.13223C68.5773 4.58769 68.8767 4.27562 69.4171 4.19812H69.4213Z" fill="#1E1E1E"/>
<path d="M58.5031 8.53159C58.7251 8.48132 59.8247 8.4897 60.0174 8.56719C60.3064 8.68448 60.6478 9.22693 60.6855 9.54109L60.6918 20.2477C60.6541 20.6226 60.3923 21.0038 59.9964 21.0645C59.7137 21.1085 58.5848 21.1064 58.323 21.0373C58.0214 20.9598 57.7806 20.6079 57.7387 20.3063L57.7345 9.66885C57.7303 9.28348 58.1303 8.61746 58.5031 8.53159Z" fill="#1E1E1E"/>
<path d="M58.8364 4.19845C60.0553 4.05394 61.536 4.8184 61.0522 6.21746C60.4972 7.82596 56.9912 7.69401 57.2697 5.39436C57.3493 4.73253 58.2311 4.26966 58.8343 4.19845H58.8364Z" fill="#1E1E1E"/>
<path d="M174.339 0.577334C176.701 1.90309 176.481 5.31697 174.083 6.5003C170.487 8.27426 166.395 4.45826 169.122 1.25383C170.372 -0.214351 172.718 -0.329542 174.337 0.577334H174.339ZM173.48 0.673675C168.131 -1.21129 166.956 7.05532 172.659 6.45004C175.931 6.10237 176.553 1.75858 173.48 0.673675Z" fill="#1E1E1E"/>
<path d="M172.091 1.4132C172.384 1.43205 172.707 1.44671 172.977 1.66243C173.459 2.0499 173.455 3.3191 172.734 3.47199C172.925 3.6584 173.802 5.53079 173.802 5.53079L173.151 5.52242L172.177 3.70238H171.364V5.53498L170.755 5.53079V1.41529C170.772 1.42786 171.576 1.38178 172.095 1.41529L172.091 1.4132ZM172.355 1.92423C172.051 1.88444 171.702 1.91166 171.362 1.92423V3.20391C171.595 3.19134 172.51 3.27512 172.655 2.95677C172.772 2.69497 172.801 1.98287 172.355 1.92423Z" fill="#1E1E1E"/>
</svg>
